TileServer und Tiles/svg/9/70_30.svg

<?xml version='1.0' encoding='UTF-8' standalone='no'?>
<svg xmlns="http://www.w3.org/2000/svg" width="497pt" viewBox="0 0 497 279" xmlns:xlink="http://www.w3.org/1999/xlink" height="279pt">
 <defs style="stroke:none;" overflow="visible">
  <path id="glyph0-4" d="M 2.921875 -5.453125 C 3.378906 -5.453125 3.769531 -5.351562 4.09375 -5.15625 C 4.425781 -4.957031 4.679688 -4.675781 4.859375 -4.3125 C 5.035156 -3.945312 5.125 -3.523438 5.125 -3.046875 L 5.125 -2.515625 L 1.453125 -2.515625 C 1.472656 -1.898438 1.628906 -1.4375 1.921875 -1.125 C 2.222656 -0.8125 2.640625 -0.65625 3.171875 -0.65625 C 3.515625 -0.65625 3.816406 -0.6875 4.078125 -0.75 C 4.335938 -0.8125 4.609375 -0.898438 4.890625 -1.015625 L 4.890625 -0.25 C 4.617188 -0.125 4.347656 -0.0351562 4.078125 0.015625 C 3.816406 0.0664062 3.5 0.09375 3.125 0.09375 C 2.625 0.09375 2.175781 -0.00390625 1.78125 -0.203125 C 1.394531 -0.410156 1.09375 -0.71875 0.875 -1.125 C 0.65625 -1.539062 0.546875 -2.046875 0.546875 -2.640625 C 0.546875 -3.222656 0.644531 -3.722656 0.84375 -4.140625 C 1.039062 -4.566406 1.316406 -4.890625 1.671875 -5.109375 C 2.023438 -5.335938 2.441406 -5.453125 2.921875 -5.453125 Z M 2.90625 -4.734375 C 2.488281 -4.734375 2.15625 -4.597656 1.90625 -4.328125 C 1.664062 -4.066406 1.523438 -3.691406 1.484375 -3.203125 L 4.203125 -3.203125 C 4.203125 -3.660156 4.097656 -4.03125 3.890625 -4.3125 C 3.679688 -4.59375 3.351562 -4.734375 2.90625 -4.734375 Z M 2.90625 -4.734375 "/>
  <path id="glyph0-3" d="M 6.734375 -5.453125 C 7.335938 -5.453125 7.789062 -5.296875 8.09375 -4.984375 C 8.394531 -4.679688 8.546875 -4.179688 8.546875 -3.484375 L 8.546875 0 L 7.671875 0 L 7.671875 -3.453125 C 7.671875 -4.296875 7.304688 -4.71875 6.578125 -4.71875 C 6.054688 -4.71875 5.679688 -4.566406 5.453125 -4.265625 C 5.234375 -3.960938 5.125 -3.523438 5.125 -2.953125 L 5.125 0 L 4.265625 0 L 4.265625 -3.453125 C 4.265625 -4.296875 3.894531 -4.71875 3.15625 -4.71875 C 2.613281 -4.71875 2.238281 -4.550781 2.03125 -4.21875 C 1.832031 -3.882812 1.734375 -3.40625 1.734375 -2.78125 L 1.734375 0 L 0.84375 0 L 0.84375 -5.359375 L 1.5625 -5.359375 L 1.6875 -4.625 L 1.734375 -4.625 C 1.898438 -4.90625 2.125 -5.113281 2.40625 -5.25 C 2.695312 -5.382812 3 -5.453125 3.3125 -5.453125 C 4.15625 -5.453125 4.703125 -5.15625 4.953125 -4.5625 L 5.015625 -4.5625 C 5.191406 -4.863281 5.429688 -5.085938 5.734375 -5.234375 C 6.046875 -5.378906 6.378906 -5.453125 6.734375 -5.453125 Z M 6.734375 -5.453125 "/>
  <path id="glyph0-2" d="M 5.515625 -2.6875 C 5.515625 -1.800781 5.285156 -1.113281 4.828125 -0.625 C 4.378906 -0.144531 3.773438 0.09375 3.015625 0.09375 C 2.535156 0.09375 2.109375 -0.0078125 1.734375 -0.21875 C 1.367188 -0.4375 1.078125 -0.753906 0.859375 -1.171875 C 0.648438 -1.585938 0.546875 -2.09375 0.546875 -2.6875 C 0.546875 -3.570312 0.769531 -4.253906 1.21875 -4.734375 C 1.664062 -5.210938 2.273438 -5.453125 3.046875 -5.453125 C 3.523438 -5.453125 3.945312 -5.34375 4.3125 -5.125 C 4.6875 -4.914062 4.976562 -4.601562 5.1875 -4.1875 C 5.40625 -3.78125 5.515625 -3.28125 5.515625 -2.6875 Z M 1.453125 -2.6875 C 1.453125 -2.050781 1.578125 -1.546875 1.828125 -1.171875 C 2.078125 -0.804688 2.476562 -0.625 3.03125 -0.625 C 3.570312 -0.625 3.96875 -0.804688 4.21875 -1.171875 C 4.46875 -1.546875 4.59375 -2.050781 4.59375 -2.6875 C 4.59375 -3.320312 4.46875 -3.816406 4.21875 -4.171875 C 3.96875 -4.535156 3.566406 -4.71875 3.015625 -4.71875 C 2.472656 -4.71875 2.078125 -4.535156 1.828125 -4.171875 C 1.578125 -3.816406 1.453125 -3.320312 1.453125 -2.6875 Z M 1.453125 -2.6875 "/>
  <path id="glyph0-1" d="M 6.625 0 L 5.578125 0 L 1.765625 -5.9375 L 1.71875 -5.9375 C 1.726562 -5.695312 1.742188 -5.40625 1.765625 -5.0625 C 1.785156 -4.71875 1.796875 -4.359375 1.796875 -3.984375 L 1.796875 0 L 0.96875 0 L 0.96875 -7.140625 L 2.015625 -7.140625 L 5.8125 -1.234375 L 5.859375 -1.234375 C 5.847656 -1.335938 5.835938 -1.492188 5.828125 -1.703125 C 5.816406 -1.921875 5.804688 -2.15625 5.796875 -2.40625 C 5.796875 -2.664062 5.796875 -2.898438 5.796875 -3.109375 L 5.796875 -7.140625 L 6.625 -7.140625 Z M 6.625 0 "/>
  <path id="glyph0-0" d="M 0.9375 0 L 0.9375 -7.140625 L 5.046875 -7.140625 L 5.046875 0 Z M 1.453125 -0.515625 L 4.546875 -0.515625 L 4.546875 -6.625 L 1.453125 -6.625 Z M 1.453125 -0.515625 "/>
 </defs>
 <image width="497" xlink:href="svg/9/70_30.jpg" height="279"/>
 <g>
  <path d="M 103.082031 129.976562 L 102.035156 129.976562 L 98.222656 124.039062 L 98.175781 124.039062 C 98.183594 124.28125 98.199219 124.570312 98.222656 124.914062 C 98.242188 125.257812 98.253906 125.617188 98.253906 125.992188 L 98.253906 129.976562 L 97.425781 129.976562 L 97.425781 122.835938 L 98.472656 122.835938 L 102.269531 128.742188 L 102.316406 128.742188 C 102.304688 128.640625 102.292969 128.484375 102.285156 128.273438 C 102.273438 128.054688 102.261719 127.820312 102.253906 127.570312 C 102.253906 127.3125 102.253906 127.078125 102.253906 126.867188 L 102.253906 122.835938 L 103.082031 122.835938 Z M 103.082031 129.976562 " transform=" rotate(  340 111.757 126.977) " style="fill:none;stroke-width:3;stroke-linecap:butt;stroke-linejoin:round;stroke:rgb(100%,100%,100%);stroke-opacity:0.6;stroke-miterlimit:10;"/>
  <path d="M 109.574219 127.289062 C 109.574219 128.175781 109.34375 128.863281 108.886719 129.351562 C 108.4375 129.832031 107.832031 130.070312 107.074219 130.070312 C 106.59375 130.070312 106.167969 129.96875 105.792969 129.757812 C 105.425781 129.539062 105.136719 129.222656 104.917969 128.804688 C 104.707031 128.390625 104.605469 127.882812 104.605469 127.289062 C 104.605469 126.40625 104.828125 125.722656 105.277344 125.242188 C 105.722656 124.765625 106.332031 124.523438 107.105469 124.523438 C 107.582031 124.523438 108.003906 124.632812 108.371094 124.851562 C 108.746094 125.0625 109.035156 125.375 109.246094 125.789062 C 109.464844 126.195312 109.574219 126.695312 109.574219 127.289062 Z M 105.511719 127.289062 C 105.511719 127.925781 105.636719 128.429688 105.886719 128.804688 C 106.136719 129.171875 106.535156 129.351562 107.089844 129.351562 C 107.628906 129.351562 108.027344 129.171875 108.277344 128.804688 C 108.527344 128.429688 108.652344 127.925781 108.652344 127.289062 C 108.652344 126.65625 108.527344 126.160156 108.277344 125.804688 C 108.027344 125.441406 107.625 125.257812 107.074219 125.257812 C 106.53125 125.257812 106.136719 125.441406 105.886719 125.804688 C 105.636719 126.160156 105.511719 126.65625 105.511719 127.289062 Z M 105.511719 127.289062 " transform=" rotate(  340 111.757 126.977) " style="fill:none;stroke-width:3;stroke-linecap:butt;stroke-linejoin:round;stroke:rgb(100%,100%,100%);stroke-opacity:0.6;stroke-miterlimit:10;"/>
  <path d="M 116.839844 124.523438 C 117.441406 124.523438 117.894531 124.679688 118.199219 124.992188 C 118.5 125.296875 118.652344 125.796875 118.652344 126.492188 L 118.652344 129.976562 L 117.777344 129.976562 L 117.777344 126.523438 C 117.777344 125.679688 117.410156 125.257812 116.683594 125.257812 C 116.160156 125.257812 115.785156 125.410156 115.558594 125.710938 C 115.339844 126.015625 115.230469 126.453125 115.230469 127.023438 L 115.230469 129.976562 L 114.371094 129.976562 L 114.371094 126.523438 C 114.371094 125.679688 114 125.257812 113.261719 125.257812 C 112.71875 125.257812 112.34375 125.425781 112.136719 125.757812 C 111.9375 126.09375 111.839844 126.570312 111.839844 127.195312 L 111.839844 129.976562 L 110.949219 129.976562 L 110.949219 124.617188 L 111.667969 124.617188 L 111.792969 125.351562 L 111.839844 125.351562 C 112.003906 125.070312 112.230469 124.863281 112.511719 124.726562 C 112.800781 124.59375 113.105469 124.523438 113.417969 124.523438 C 114.261719 124.523438 114.808594 124.820312 115.058594 125.414062 L 115.121094 125.414062 C 115.296875 125.113281 115.535156 124.890625 115.839844 124.742188 C 116.152344 124.597656 116.484375 124.523438 116.839844 124.523438 Z M 116.839844 124.523438 " transform=" rotate(  340 111.757 126.977) " style="fill:none;stroke-width:3;stroke-linecap:butt;stroke-linejoin:round;stroke:rgb(100%,100%,100%);stroke-opacity:0.6;stroke-miterlimit:10;"/>
  <path d="M 122.378906 124.523438 C 122.835938 124.523438 123.226562 124.625 123.550781 124.820312 C 123.882812 125.019531 124.136719 125.300781 124.316406 125.664062 C 124.492188 126.03125 124.582031 126.453125 124.582031 126.929688 L 124.582031 127.460938 L 120.910156 127.460938 C 120.929688 128.078125 121.085938 128.539062 121.378906 128.851562 C 121.679688 129.164062 122.097656 129.320312 122.628906 129.320312 C 122.972656 129.320312 123.273438 129.289062 123.535156 129.226562 C 123.792969 129.164062 124.066406 129.078125 124.347656 128.960938 L 124.347656 129.726562 C 124.074219 129.851562 123.804688 129.941406 123.535156 129.992188 C 123.273438 130.042969 122.957031 130.070312 122.582031 130.070312 C 122.082031 130.070312 121.632812 129.972656 121.238281 129.773438 C 120.851562 129.566406 120.550781 129.257812 120.332031 128.851562 C 120.113281 128.4375 120.003906 127.929688 120.003906 127.335938 C 120.003906 126.753906 120.101562 126.253906 120.300781 125.835938 C 120.496094 125.410156 120.773438 125.085938 121.128906 124.867188 C 121.480469 124.640625 121.898438 124.523438 122.378906 124.523438 Z M 122.363281 125.242188 C 121.945312 125.242188 121.613281 125.378906 121.363281 125.648438 C 121.121094 125.910156 120.980469 126.285156 120.941406 126.773438 L 123.660156 126.773438 C 123.660156 126.316406 123.554688 125.945312 123.347656 125.664062 C 123.136719 125.382812 122.808594 125.242188 122.363281 125.242188 Z M 122.363281 125.242188 " transform=" rotate(  340 111.757 126.977) " style="fill:none;stroke-width:3;stroke-linecap:butt;stroke-linejoin:round;stroke:rgb(100%,100%,100%);stroke-opacity:0.6;stroke-miterlimit:10;"/>
  <g transform=" rotate(  340 111.757 126.977) " style="fill:rgb(13.333333%,13.333333%,13.333333%);fill-opacity:1;">
   <use xlink:href="#glyph0-1" y="129.977058" x="96.456741"/>
   <use xlink:href="#glyph0-2" y="129.977058" x="104.056741"/>
   <use xlink:href="#glyph0-3" y="129.977058" x="110.106741"/>
   <use xlink:href="#glyph0-4" y="129.977058" x="119.456741"/>
  </g>
 </g>
</svg>

<svg xmlns="http://www.w3.org/2000/svg" xmlns:xlink="http://www.w3.org/1999/xlink" viewBox="0 0 497 279"> <defs overflow="visible" style="stroke:none">  <path id="d" d="M3-5.5c.3 0 .7.1 1 .3a2 2 0 0 1 1 .9v1.8H1.5c0 .5.1 1 .4 1.4.3.3.7.4 1.3.4H4l.9-.3v.8L4 0a5 5 0 0 1-1 0 3 3 0 0 1-1.2-.1 2.2 2.2 0 0 1-1-1.1c0-.2-.2-.8-.2-1.3-.1-.7 0-1.2.2-1.6.2-.5.5-.9.9-1 .3-.2.7-.4 1.2-.4Zm0 .8c-.6 0-.9.1-1 .4-.4.2-.6.6-.6 1.1h2.8c0-.5-.1-.8-.3-1.1-.2-.3-.5-.4-1-.4Zm0 0"/>  <path id="c" d="M6.7-5.5c.6 0 1 .2 1.4.5.3.3.4.8.4 1.5V0h-.8v-3.5c0-.8-.4-1.2-1.1-1.2-.6 0-1 .1-1.1.4C5.2-4 5-3.5 5-3v3h-.7v-3.5c0-.8-.4-1.2-1.1-1.2-.6 0-1 .1-1.2.5-.2.2-.3.8-.3 1.4V0H.8v-5.4h.8v.8h.2l.6-.7 1-.2c.7 0 1.2.3 1.6 1 .2-.5.4-.7.7-.8.3-.1.7-.2 1-.2Zm0 0"/>  <path id="b" d="M5.5-2.7c0 .9-.2 1.7-.7 2-.4.7-1 .9-1.8.9-.5-.2-.9-.2-1.3-.4-.3-.2-.6-.6-.7-1C.6-1.6.5-2 .5-2.7c0-.9.3-1.6.7-2 .5-.5 1-.8 1.8-.8.5 0 1 .2 1.3.5.4 0 .7.4.9.9.2.2.3.7.3 1.3Zm-4 0c0 .7 0 1.2.3 1.5.3.4.7.6 1.2.6.6 0 1-.2 1.2-.6.3-.3.4-.8.4-1.5s-.1-1.1-.4-1.5c-.2-.3-.6-.5-1.2-.5-.5 0-1 .2-1.2.5-.2.4-.3.9-.3 1.5Zm0 0"/>  <path id="a" d="M6.6 0h-1L1.8-6v6H1v-7.1h1l3.8 5.9v-5.9h.8Zm0 0"/>  <path d="M1 0v-7.1h4V0Zm.4-.5h3.1v-6.1h-3Zm.1 0"/> </defs> <image xlink:href="svg/9/70_30.jpg" width="497" height="279"/> <path d="M103 130h-1l-3.8-6v6h-.7v-7.2h.9l4 6v-6h.6Zm6.6-2.7c0 .9-.3 1.6-.7 2-.5.6-1 .9-1.9.9-.4-.2-1-.2-1.2-.4-.4-.3-.8-.6-.9-1-.2-.4-.3-1-.3-1.5 0-.9.2-1.6.7-2 .4-.6 1-.9 1.7-.9.6.1 1 .2 1.4.6.3 0 .6.4.8.8.3.4.4.9.4 1.5Zm-4 0c-.1.6-.1 1.1.2 1.5.2.4.7.6 1.2.6.6 0 1-.2 1.3-.6.2-.4.4-.9.4-1.5s-.2-1.1-.4-1.5c-.3-.4-.7-.5-1.3-.5-.5 0-1 .1-1.1.5-.3.4-.4.9-.4 1.5ZM116.8 124.5c.6 0 1 .2 1.4.5.3.3.5.8.5 1.5v3.5h-1v-3.5c.1-.8-.2-1.2-.9-1.2-.6 0-1.1.1-1.2.4-.3.3-.4.8-.4 1.3v3h-.8v-3.5c0-.8-.4-1.2-1.1-1.2-.6 0-1 .1-1.3.5 0 .2-.2.8-.2 1.4v2.8h-.8v-5.4h.7v.8h.2l.6-.7 1-.2c.7 0 1.2.3 1.5 1 .3-.5.5-.7.8-.9l1-.1Zm5.6 0 1.2.3a2 2 0 0 1 .7.9c.2.3.3.8.3 1.2v.6h-3.7c.1.5.2 1 .5 1.4.3.3.6.4 1.2.4h1l.6-.3v.7c-.1.3-.4.3-.7.3a5 5 0 0 1-1 0 3 3 0 0 1-1.2-.1 2.2 2.2 0 0 1-1-1.1c-.2-.3-.3-.8-.3-1.4l.3-1.6.8-1c.4-.1.9-.2 1.3-.2Zm0 .7c-.5 0-.8.2-1 .4-.4.4-.4.7-.5 1.2h2.8c0-.5-.1-.9-.4-1.1-.2-.3-.5-.5-1-.5Zm0 0" style="fill:none;stroke-width:3;stroke-linecap:butt;stroke-linejoin:round;stroke:#fff;stroke-opacity:.6;stroke-miterlimit:10" transform=" rotate(  340 111.757 126.977) "/> <g style="fill:#222;fill-opacity:1" transform=" rotate(  340 111.757 126.977) ">  <use xlink:href="#a" x="96.5" y="130"/>  <use xlink:href="#b" x="104.1" y="130"/>  <use xlink:href="#c" x="110.1" y="130"/>  <use xlink:href="#d" x="119.5" y="130"/> </g></svg>
